X:609
M:C|
L:1/8
K:C
f|edcB c2Gc|AcGc EDDf|edcB c2Gc|AcGc ECC:|
ECEG cGAF|ECEG FDDF|ECEG cdec|defd ec~c||

